src/assets/projetos/github-project.svg

<svg width="25" height="25" viewBox="0 0 25 25" fill="none" xmlns="http://www.w3.org/2000/svg">
<g clip-path="url(#clip0_35_19)">
<path d="M12.5926 2.53097C18.0385 2.53097 22.4691 6.96159 22.4691 12.4075C22.4691 17.8534 18.0385 22.2841 12.5926 22.2841C7.14668 22.2841 2.71606 17.8534 2.71606 12.4075C2.71606 6.96159 7.14668 2.53097 12.5926 2.53097ZM12.5926 0.555664C6.04742 0.555664 0.740753 5.86233 0.740753 12.4075C0.740753 18.9527 6.04742 24.2594 12.5926 24.2594C19.1378 24.2594 24.4445 18.9527 24.4445 12.4075C24.4445 5.86233 19.1378 0.555664 12.5926 0.555664ZM12.5926 6.48159C9.32051 6.48159 6.66668 9.13443 6.66668 12.4075C6.66668 15.0258 8.36446 17.247 10.72 18.0302C11.0163 18.0855 11.1111 17.9018 11.1111 17.7448V16.6416C9.46273 17.0001 9.11902 15.9433 9.11902 15.9433C8.85038 15.2589 8.46125 15.0762 8.46125 15.0762C7.92396 14.7078 8.50174 14.7157 8.50174 14.7157C9.0973 14.7571 9.41038 15.327 9.41038 15.327C9.93878 16.2327 10.7961 15.971 11.1348 15.8199C11.1882 15.4367 11.3412 15.1759 11.5111 15.0278C10.1946 14.8776 8.81186 14.369 8.81186 12.0994C8.81186 11.4525 9.04297 10.9241 9.42223 10.5092C9.361 10.3581 9.15754 9.75468 9.47952 8.93887C9.47952 8.93887 9.9773 8.77986 11.1091 9.54628C11.5822 9.41492 12.0889 9.34974 12.5926 9.34678C13.0963 9.34875 13.603 9.41492 14.077 9.54628C15.2089 8.77986 15.7047 8.93887 15.7047 8.93887C16.0277 9.75468 15.8242 10.3581 15.764 10.5073C16.1442 10.9221 16.3733 11.4505 16.3733 12.0974C16.3733 14.3739 14.9867 14.8747 13.6672 15.0208C13.8805 15.2046 14.0741 15.565 14.0741 16.1181V17.7438C14.0741 17.9018 14.1689 18.0865 14.4691 18.0283C16.8227 17.245 18.5185 15.0248 18.5185 12.4075C18.5185 9.13443 15.8647 6.48159 12.5926 6.48159Z" fill="#7B2CBF"/>
</g>
<defs>
<clipPath id="clip0_35_19">
<rect width="23.7037" height="23.7037" fill="white" transform="translate(0.740753 0.555664)"/>
</clipPath>
</defs>
</svg>

<svg xmlns="http://www.w3.org/2000/svg" width="25" height="25" fill="none"><g clip-path="url(#a)"><path fill="#7B2CBF" d="M12.593 2.531c5.445 0 9.876 4.43 9.876 9.877 0 5.445-4.43 9.876-9.876 9.876s-9.877-4.43-9.877-9.876 4.43-9.877 9.877-9.877Zm0-1.975C6.047.556.74 5.862.74 12.408c0 6.545 5.306 11.851 11.852 11.851 6.545 0 11.852-5.306 11.852-11.851 0-6.546-5.307-11.852-11.852-11.852Zm0 5.926A5.926 5.926 0 0 0 10.72 18.03c.296.055.391-.128.391-.285v-1.103c-1.648.358-1.992-.699-1.992-.699-.269-.684-.658-.867-.658-.867-.537-.368.04-.36.04-.36.596.041.91.611.91.611.528.906 1.385.644 1.724.493.053-.383.206-.644.376-.792-1.316-.15-2.7-.659-2.7-2.929 0-.646.232-1.175.611-1.59-.061-.15-.264-.754.058-1.57 0 0 .497-.16 1.63.607.472-.131.979-.196 1.483-.2.503.003 1.01.069 1.484.2 1.132-.766 1.628-.607 1.628-.607.323.816.12 1.42.059 1.568.38.415.61.944.61 1.59 0 2.277-1.387 2.778-2.707 2.924.213.184.407.544.407 1.097v1.626c0 .158.095.343.395.284a5.926 5.926 0 0 0-1.877-11.547Z"/></g><defs><clipPath id="a"><path fill="#fff" d="M.74.556h23.705V24.26H.74z"/></clipPath></defs></svg>
